!!!COM: Haydn, Franz Joseph
!!!OTL: String Quartet in E-flat Major
!!!OPS: Opus 1
!!!ONM: No. 0
!!!OMD: Menuetto I
!!!OMV: 2
!!!SCT: H II:6
!!!SCA: Thematisch-bibliographisches Werkevererzeichnis (A. van Hoboken)
!!!YOR: Bremner Edition, 1772
!!!ENC: Frances Bennion
!!!CDT: 1732/3/31/-1809/5/31/
!!!CNT: Oesterreich
!!!YEC: Copyright (c) 1994, 2000 Center for Computer Assisted Research in the Humanities
!!!YEM: Rights to all derivative editions reserved.
!!!YEM: Refer to licensing agreement for further details.
!!!YEN: United States of America
**kern	**kern	**kern	**kern
*k[b-e-a-]	*k[b-e-a-]	*k[b-e-a-]	*k[b-e-a-]
*E-:	*E-:	*E-:	*E-:
*clefF4	*clefC3	*clefF	*clefF
*M3/4	*M3/4	*M3/4	*M3/4
2E-	2E-	2e- 2G	2G 2e-
4r	4r	4B-	16f
.	.	.	8.d
=2	=2	=2	=2
2E-	2E-	2G 2e-	2e- 2G
4r	4r	4B-	16f
.	.	.	8.d
=3	=3	=3	=3
4r	4r	4e-	16e-
.	.	.	8.g
4r	4r	4B-	16f
.	.	.	8.a-
4B-	4B-	4d	16d
.	.	.	8.f
=4	=4	=4	=4
4E-	4e-	4e-	16e-
.	.	.	8.g
4BB-	4B-	4d	4f
4r	4r	4r	4r
=5	=5	=5	=5
2BB-	2d	2B- 2f	2B- 2f
4r	4r	4B-	16a-
.	.	.	8.f
=6	=6	=6	=6
4r	4r	4e-	16e-
.	.	.	8.g
4r	4r	4B-	16f
.	.	.	8.a-
4AA-	4A-	4B-	16f
.	.	.	8.d
=7	=7	=7	=7
8.GG	8.G	4B-	16e-
.	.	.	8.B-
16AA-	16A-	.	.
4BB-	4B-	4e-	4g
4BB-	4B-	4d	4f
=8	=8	=8	=8
4E-	4e-	2e-	2e-
4BB-	4B-	.	.
4EE-	4E-	4r	4r
=9	=9	=9	=9
2E-	2e-	2g	2b-
4G	4g	4e-	16g
.	.	.	8.e-
=10	=10	=10	=10
4B-	4b-	16B-	16d
.	.	8.e-	8.g
2r	2r	4d	4f
.	.	4r	4r
=11	=11	=11	=11
2F	2f	2A	4ee-
.	.	.	16cc
.	.	.	8.a
4A	4a	4c	16f
.	.	.	8.e-
=12	=12	=12	=12
4B-	4b-	16B-	16d
.	.	8.e-	8.g
2r	2r	4d	4f
.	.	4r	4r
=13	=13	=13	=13
2BB-	2B-	2dd	2ff
4D	4d	16b-	16dd
.	.	8.f	8.b-
=14	=14	=14	=14
2F	2f	2e-	16a
.	.	.	8.ee-
.	.	.	16cc
.	.	.	8.a
4A	4a	4c	16f
.	.	.	8.e-
=15	=15	=15	=15
4B-	4b-	4B-	4d
4D	4d	4b-	4b-
4F	4f	4a	4a
=16	=16	=16	=16
4BB-	4B-	2b-	2b-
4B-	4b-	.	.
4r	4r	4r	4r
=17	=17	=17	=17
2.C	2.G	16c	2.e
.	.	8.B-	.
.	.	16c	.
.	.	8.B-	.
.	.	16c	.
.	.	8.B-	.
=18	=18	=18	=18
4FF	4A-	4A-	16f
.	.	.	8.a-
2r	2r	2r	16A-
.	.	.	8.c
.	.	.	16f
.	.	.	8.a-
=19	=19	=19	=19
2.BB-	2.F	16B-	2.d
.	.	8.A-	.
.	.	16B-	.
.	.	8.A-	.
.	.	16B-	.
.	.	8.A-	.
=20	=20	=20	=20
4EE-	4G	4G	16e-
.	.	.	8.g
2r	2r	2r	16G
.	.	.	8.B-
.	.	.	16e-
.	.	.	8.g
=21	=21	=21	=21
4E-	4e-	4g	4b-
4r	4r	4f	4a-
4E-	4e-	4e-	4g
=22	=22	=22	=22
4B-	4b-	2d	2f
8B-	8B-	.	.
8A-	8A-	.	.
8G	8G	4r	4r
8F	8F	.	.
=23	=23	=23	=23
2E-	2E-	2G 2e-	2G 2e-
4r	4r	4B-	16f
.	.	.	8.d
=24	=24	=24	=24
2E-	2E-	2e- 2G	2e- 2G
4r	4r	4B-	16f
.	.	.	8.d
=25	=25	=25	=25
4r	4r	4e-	16e-
.	.	.	8.g
4r	4r	4B-	16f
.	.	.	8.a-
4B-	4B-	4d	16d
.	.	.	8.f
=26	=26	=26	=26
4E-	4e-	4e-	16e-
.	.	.	8.g
4BB-	4B-	4d	4f
4r	4r	4r	4r
=27	=27	=27	=27
2BB-	2d	2B- 2f	2B- 2f
4r	4r	4B-	16a-
.	.	.	8.d
=28	=28	=28	=28
4r	4r	4e-	16e-
.	.	.	8.g
4r	4r	4B-	16f
.	.	.	8.a-
4AA-	4A-	4B-	16f
.	.	.	8.d
=29	=29	=29	=29
8.GG	8.G	4B-	16e-
.	.	.	8.B-
16AA-	16A-	.	.
4BB-	4B-	4e-	4g
4BB-	4B-	4d	4f
=30	=30	=30	=30
4E-	4e-	2e-	2e-
4BB-	4B-	.	.
4EE-	4E-	4r	4r
=31	=31	=31	=31
4r	4r	4r	2.cc
4C	4c	8c	.
.	.	8d	.
4AA-	4A-	8e-	.
.	.	8f#	.
=32	=32	=32	=32
4GG	4G	4g	4b
2r	2r	2r	8g
.	.	.	8f#
.	.	.	8g
.	.	.	8a
=33	=33	=33	=33
4r	4r	4r	2.b-
4B-	4b-	8B-	.
.	.	8c	.
4G	4g	8d-	.
.	.	8e	.
=34	=34	=34	=34
4F	4f	4f	4a
2r	2r	2r	8f
.	.	.	8e
.	.	.	8f
.	.	.	8g
=35	=35	=35	=35
4r	4r	4r	2.a-
4A-	4a-	8A-	.
.	.	8B-	.
4F	4f	8c	.
.	.	8d	.
=36	=36	=36	=36
4E-	4e-	4e-	4g
2r	2r	2r	8e-
.	.	.	8f
.	.	.	8g
.	.	.	8a-
=37	=37	=37	=37
4r	4r	4r	[2.b-
8BB-	8B-	8d	.
8C	8c	8e-	.
8D	8d	8f	.
8E-	8e-	8g	.
=38	=38	=38	=38
4F	4f	4a-	2.b-]
8D	8d	8B-	.
8E-	8e-	8c	.
8F	8f	8d	.
8G	8g	8e-	.
=39	=39	=39	=39
4A-	4a-	4f	4b-
2r	2r	4r	8b-
.	.	.	8cc
.	.	8B-	8dd
.	.	8c	8ee-
=40	=40	=40	=40
2.r	2.r	8d	8ff
.	.	8e-	8gg
.	.	8f	8aa-
.	.	8a-	8ff
.	.	8g	8ee-
.	.	8f	8dd
=41	=41	=41	=41
8.G	8.g	4e-	4ee-
16A-	16a-	.	.
4B-	4b-	4e-	4g
4BB-	4B-	4d	4f
=42	=42	=42	=42
4E-	4e-	2e-	2e-
4BB-	4B-	.	.
4EE-	4E-	4r	4r
=43	=43	=43	=43
2.r	4r	2.r	2.bb-
.	8g	.	.
.	8a-	.	.
.	8b-	.	.
.	8cc	.	.
=44	=44	=44	=44
2.r	4dd-	2.r	4bb-
.	8cc	.	8aa-
.	8b-	.	8gg
.	8a-	.	8ff
.	8g	.	8ee
=45	=45	=45	=45
2.r	2.f	4f	2.ff
.	.	8e-	.
.	.	8d-	.
.	.	8c	.
.	.	8B-	.
=46	=46	=46	=46
2.r	2.f	4A-	4ff
.	.	4B-	8ee-
.	.	.	8dd-
.	.	4c	8cc
.	.	.	8b-
=47	=47	=47	=47
2.r	2.f	2.d-	4a-
.	.	.	8f
.	.	.	8g
.	.	.	8a-
.	.	.	8b
=48	=48	=48	=48
2.r	4e	4c	4cc
.	8c	2r	4c
.	8d	.	.
.	8e	.	4r
.	8f	.	.
=49	=49	=49	=49
2.BB-	2g	2.e	4dd-
.	.	.	8cc
.	.	.	8b-
.	4B-	.	8a-
.	.	.	8g
=50	=50	=50	=50
2.AA-	2.A-	2.f	8f
.	.	.	8g
.	.	.	8a-
.	.	.	8b-
.	.	.	8cc
.	.	.	8dd
=51	=51	=51	=51
2.AA-	2c	2.f#	4ee-
.	.	.	8dd
.	.	.	8cc
.	4A-	.	8b
.	.	.	8cc
=52	=52	=52	=52
4GG	4G	4g	4g
8G	8g	2r	2r
8F	8f	.	.
8E-	8e-	.	.
8D	8d	.	.
=53	=53	=53	=53
2.C	4c	2.e-	4r
.	2r	.	8cc
.	.	.	8dd
.	.	.	8ee-
.	.	.	8ff
=54	=54	=54	=54
2.BB	4r	2.d	8gg
.	.	.	8ff#
.	8dd	.	8gg
.	8cc	.	8ff#
.	8b	.	4gg
.	8a	.	.
=55	=55	=55	=55
2.BB-	4g	2.d-	4r
.	2r	.	8b-
.	.	.	8cc
.	.	.	8dd-
.	.	.	8ee
=56	=56	=56	=56
2.AA	4r	2.c	8ff
.	.	.	8ee
.	8cc	.	8ff
.	8b-	.	8ee
.	8a	.	4ff
.	8g	.	.
=57	=57	=57	=57
2.AA-	4f	2.c	4r
.	2r	.	8a-
.	.	.	8b-
.	.	.	8cc
.	.	.	8dd
=58	=58	=58	=58
2.GG	4r	2.B-	8ee-
.	.	.	8dd
.	8b-	.	8ee-
.	8a-	.	8dd
.	8g	.	4ee-
.	8f	.	.
=59	=59	=59	=59
2.FF#	2.e-	2A	4ee-
.	.	.	8dd
.	.	.	8cc
.	.	4c	8b
.	.	.	8cc
=60	=60	=60	=60
4GG	4d	8d	8b
.	.	8f	8a-
2r	2r	8e-	8g
.	.	8d	8f
.	.	8c	8e-
.	.	8B	8d
=61	=61	=61	=61
4C	4c	4c	4e-
4G	4E-	4c	4c
4GG	4D	4B	4B
=62	=62	=62	=62
4C	4C	2c	2c
4GG	2r	.	.
4CC	.	4r	4r
==	==	==	==
*-	*-	*-	*-
!!!RWG1: This file contains only pitch and duration data.
!!!RWG2: Transposing instruments are not transposed.
!!!RWG3: Spines may have incompatible meters.
!!!RWG4: Durations of rests and tied notes may be interpreted.
!!!RWG: Key is interpreted using the Humdrum key tool.
!!!GTL: 10 Divertimentos
!!!AFT: stage1
!!!END: 1997/04/15
!!!KEY: 3168560717
!!!EMD: Converted from MuseData to Humdrum Dec 16, 2000, by Andreas Kornstaedt using muse2kern.
!!!EMD: Manual editing by Craig Sapp, Nov 2001
